**kern
*staff3
*tb16
=1-
*clefF4
*k[b-e-]
*M6/8
8r
.
8r
.
8r
.
8r
.
8r
.
8r
.
=2
2.GG/
.
.
.
.
.
.
.
.
.
.
.
=3
4.D\
.
.
.
.
.
8F\L
.
8E-\
.
8D\J
.
=4
!!linebreak:original
4G\
.
.
.
8r
.
4C/
.
.
.
8r
.
=5
8r
.
8D/L
.
8C#/J
.
8D/L
.
8C#/
.
8Cn/J
.
=6
2.BB-/
.
.
.
.
.
.
.
.
.
.
.
=7
!!linebreak:original
[4.AA/
.
.
.
.
.
4AA/]
.
.
.
8BB-/
.
=8
4.C/
.
.
.
.
.
8C#\L 8G\L
.
8A\
.
8B-\J
.
=9
4D\ 4B-\
.
.
.
8F#\ 8c\
.
4G\ 4B-\
.
.
.
8GG/
.
=10
4C/
.
.
.
8D\
.
4E-\
.
.
.
8F#\
.
=11
!!linebreak:original
4.G\
.
.
.
.
.
4.C/
.
.
.
.
.
=12
4.D\
.
.
.
.
.
4D\
.
.
.
8D\
.
=13
(4.GG/ 4.D/
.
.
.
.
.
8G\) 8Bn\
.
8r
.
8r
.
=14
4G\ 4d\
.
.
.
8G\ 8c\
.
4G\ 4B-\
.
.
.
8G\ 8A\
.
=15
8D\L 8B-\L
.
8D\ 8d\
.
8D\J 8c\J
.
4G\ 4B-\
.
.
.
8r
.
==
*-
